fs/document_24_regular.svg

<svg viewBox="0 0 24 24" fill="none" xmlns="http://www.w3.org/2000/svg" height="1em" width="1em">
  <path d="M18.5 20a.5.5 0 0 1-.5.5H6a.5.5 0 0 1-.5-.5V4a.5.5 0 0 1 .5-.5h6V8a2 2 0 0 0 2 2h4.5v10Zm-5-15.379L17.378 8.5H14a.5.5 0 0 1-.5-.5V4.621Zm5.914 3.793-5.829-5.828c-.026-.026-.058-.046-.085-.07a2.072 2.072 0 0 0-.219-.18c-.04-.027-.086-.045-.128-.068-.071-.04-.141-.084-.216-.116a1.977 1.977 0 0 0-.624-.138C12.266 2.011 12.22 2 12.172 2H6a2 2 0 0 0-2 2v16a2 2 0 0 0 2 2h12a2 2 0 0 0 2-2V9.828a2 2 0 0 0-.586-1.414Z" fill="#212121"/>
</svg>

<svg viewBox="0 0 24 24" fill="none" xmlns="http://www.w3.org/2000/svg" height="1em" width="1em">
  <path d="M18.5 20C18.5 20.275 18.276 20.5 18 20.5H6C5.724 20.5 5.5 20.275 5.5 20V4C5.5 3.725 5.724 3.5 6 3.5H12V8C12 9.104 12.896 10 14 10H18.5V20ZM13.5 4.621L17.378 8.5H14C13.724 8.5 13.5 8.275 13.5 8V4.621ZM19.414 8.414L13.585 2.586C13.559 2.56 13.527 2.54 13.5 2.516C13.429 2.452 13.359 2.389 13.281 2.336C13.241 2.309 13.195 2.291 13.153 2.268C13.082 2.228 13.012 2.184 12.937 2.152C12.74 2.07 12.528 2.029 12.313 2.014C12.266 2.011 12.22 2 12.172 2H12.171H12H6C4.896 2 4 2.896 4 4V20C4 21.104 4.896 22 6 22H18C19.104 22 20 21.104 20 20V10V9.828C20 9.298 19.789 8.789 19.414 8.414Z" fill="#212121"/>
</svg>
